www/assets/icons/swap_calls.svg

<svg width="24" height="24" viewBox="0 0 24 24" xmlns="http://www.w3.org/2000/svg" fill='currentColor'><path d="M18 4.5L14 8.5H17V15.5C17 16.6 16.1 17.5 15 17.5C13.9 17.5 13 16.6 13 15.5V8.5C13 6.29 11.21 4.5 9 4.5C6.79 4.5 5 6.29 5 8.5V15.5H2L6 19.5L10 15.5H7V8.5C7 7.4 7.9 6.5 9 6.5C10.1 6.5 11 7.4 11 8.5V15.5C11 17.71 12.79 19.5 15 19.5C17.21 19.5 19 17.71 19 15.5V8.5H22L18 4.5Z"/></svg>

<svg xmlns="http://www.w3.org/2000/svg" width="24" height="24" viewBox="0 0 24 24" fill='currentColor'><path d="m18 4.5-4 4h3v7c0 1.1-.9 2-2 2s-2-.9-2-2v-7c0-2.21-1.79-4-4-4s-4 1.79-4 4v7H2l4 4 4-4H7v-7c0-1.1.9-2 2-2s2 .9 2 2v7c0 2.21 1.79 4 4 4s4-1.79 4-4v-7h3z"/></svg>
